X: 161
T: Silver and Gold Two-Step
C: R-80
M: C|
Z: Transcribed to abc by Mary Lou Knack
R: two-step
K: D
f2g2| "D"a4 f2d2| A4 d2f2| "A7"a2 g4 f2| g4 e2f2|
      "A7"g4 e2c2| A4 c2e2|1 "D"b2 a4 ^g2| a4:|2 "D"d4- dedc| d4|]
\
F2G2| "D"A2f2 A2f2| Af3 f2f| "A7"f2 e4- e^d| e4 E2F2|
      "A7"G2e2 G2e2| Ge3 e3d| "D"e2 d4- dc| d4 F2G2|
      "D"A2f2 A2f2| Af3 "D7"f3f| "G"a4 g2e2| "Em"B4 c2d2|
      "A7"f2 e4 c2| A4 c2e2| "D"d4- dedc| d4 |]
%%text 9/1/98.  From Ted Sanella's, "Balance and Swing".
% ---------- page 84 ----------
